hosted_logos/red_hat_inc.svg

<svg xmlns="http://www.w3.org/2000/svg" role="img" viewBox="-19.94 -19.94 1036.88 190.88"><title>Red Hat Inc. logo</title><style>svg {enable-background:new 0 0 997.2 151.8}</style><style>.st0{fill:#101820}</style><g id="IBM_RedHat_lockup"><path id="IBM_1_" d="M670.7 128.2h59.2v8.5h-59.2v-8.5zm0-7.7h59.2V112h-59.2v8.5zm16.9-16.1H713v-8.5h-25.4v8.5zm0-16.2H713v-8.5h-25.4v8.5zm0-16.1H713v-8.5h-25.4v8.5zM713 47.5h-25.4V56H713v-8.5zm-42.3-7.7h59.2v-8.5h-59.2v8.5zm0-16.2h59.2v-8.5h-59.2v8.5zm67.7 96.9h90.2c1.5-2.6 2.7-5.4 3.4-8.5h-93.6v8.5zm83.1-40.7h-66.2v8.5h73.3c-1.9-3.3-4.3-6.2-7.1-8.5zm-66.2-16.2v8.5h66.2c2.8-2.4 5.2-5.2 7.1-8.5h-73.3zm73.3-32.3h-90.2v8.5H832c-.8-3-1.9-5.9-3.4-8.5zm-28-16.1h-62.3v8.5h84c-5.6-5.3-13.3-8.5-21.7-8.5zm-45.3 40.7h25.4v-8.5h-25.4v8.5zm49.2 0h27.3c.7-2.7 1.1-5.5 1.1-8.5h-28.4v8.5zm-49.2 48.5h25.4v-8.5h-25.4v8.5zm49.2-8.5v8.5h28.4c0-2.9-.4-5.8-1.1-8.5h-27.3zm-66.1 40.7h62.3c8.5 0 16-3.2 21.8-8.5h-84v8.5zm169.1 0l3-8.5h-5.9l2.9 8.5zm-5.7-16.1h11.3l3-8.5h-17.2l2.9 8.5zm-5.6-16.1h22.6l3-8.5h-28.5l2.9 8.5zm-5.7-16.2h33.9l3-8.5h-39.9l3 8.5zm-33.8-32.3h45.7l-2.9-8.5h-42.7v8.5zm61.4-16.1h57v-8.5h-54l-3 8.5zm8.6-24.6l-2.9 8.5h51.4v-8.5h-48.5zm-86.9 121.4h42.3v-8.5h-42.3v8.5zm0-16.1h42.3V112h-42.3v8.5zm16.9-16.1h25.4v-8.5h-25.4v8.5zm0-16.2h25.4v-8.5h-25.4v8.5zm101.5-40.7h-42.7l-2.9 8.5h45.7v-8.5zm-25.4 24.6h25.4v-8.5h-48.4l-2.4 6.8-2.4-6.8h-48.4v8.5H882v-7.8l2.7 7.8H930l2.7-7.8v7.8zm25.4 7.7h-25.4v8.5h25.4v-8.5zm-25.4 24.6h25.4v-8.5h-25.4v8.5zm0 16.1h42.3V112h-42.3v8.5zm0 16.1h42.3v-8.5h-42.3v8.5zm-36-96.8l-2.9-8.5h-54v8.5h56.9zm-5.6-16.2l-2.9-8.5h-48.4v8.5h51.3zm93 106.7c0-3.8 2.9-6.7 6.5-6.7s6.5 2.9 6.5 6.7c0 3.8-2.9 6.7-6.5 6.7s-6.5-2.9-6.5-6.7zm11.4.5v-.8c0-2.7-2.1-4.8-4.9-4.8-2.8 0-4.9 2.1-4.9 4.8v.8c0 2.7 2.1 4.8 4.9 4.8 2.8 0 4.9-2.1 4.9-4.8zm-5.9 3h-1.6V127h3.1c1.5 0 2.3.9 2.3 2.1 0 1.1-.5 1.7-1.2 2l1.5 2.6H992l-1.3-2.3h-.9v2.4zm1.3-3.6c.5 0 .8-.2.8-.7v-.5c0-.5-.3-.7-.8-.7h-1.2v1.9h1.2z" class="st0"/><path id="Divider_1_" d="M592 151.8h2.8V0H592v151.8z" class="st0"/><g id="RedHat"><path fill="#f32735" d="M107.1 85.2c10.5 0 25.8-2.2 25.8-14.7 0-1 0-1.9-.3-2.9l-6.3-27.3c-1.5-6-2.7-8.7-13.3-14-8.2-4.2-26-11.1-31.3-11.1-4.9 0-6.4 6.4-12.2 6.4-5.6 0-9.8-4.7-15.1-4.7-5.1 0-8.4 3.5-10.9 10.5 0 0-7.1 20-8 22.9-.2.5-.2 1.2-.2 1.6.2 7.8 30.8 33.3 71.8 33.3m27.5-9.7c1.5 6.9 1.5 7.6 1.5 8.5 0 11.8-13.3 18.4-30.7 18.4-39.5 0-74-23.1-74-38.4 0-2.4.5-4.5 1.3-6.2C18.4 58.6 0 61.2 0 77.4c0 26.5 62.9 59.3 112.7 59.3 38.2 0 47.8-17.3 47.8-30.9.1-10.8-9.2-23-25.9-30.3"/><path fill="#2d2a26" d="M134.6 75.5c1.5 6.9 1.5 7.6 1.5 8.5 0 11.8-13.3 18.4-30.7 18.4-39.5 0-74-23.1-74-38.4 0-2.4.5-4.5 1.3-6.2l3.1-7.6c-.2.5-.2 1.2-.2 1.6 0 7.8 30.6 33.3 71.6 33.3 10.5 0 25.8-2.2 25.8-14.7 0-1 0-1.9-.3-2.9l1.9 8zm354 17.5c0 10 6 14.9 17 14.9 2.7 0 7.3-.6 10-1.4V94.9c-2.4.7-4.2 1-6.5 1-4.5 0-6.2-1.4-6.2-5.7V72.4H516v-12h-13.1V45.2l-14.4 3.1v12.1H479v12h9.5V93zm-44.7.3c0-3.1 3.1-4.6 7.8-4.6 3.1 0 5.9.4 8.5 1.1v6c-2.7 1.5-5.8 2.2-9 2.2-4.5 0-7.3-1.8-7.3-4.7m4.4 14.8c5.1 0 9.1-1.1 13-3.6v2.8h14.2v-30c0-11.4-7.7-17.7-20.6-17.7-7.2 0-14.3 1.7-21.9 5.1l5.1 10.6c5.5-2.3 10.1-3.7 14.2-3.7 5.9 0 9 2.3 9 7v2.3c-3.4-.9-6.9-1.3-10.6-1.3-12.1 0-19.3 5.1-19.3 14.1-.1 8.1 6.4 14.4 16.9 14.4m-78-.8h15.3V83h25.5v24.3h15.3V45.2h-15.3v23.9h-25.5V45.2h-15.3v62.1zm-58.1-23.5c0-6.7 5.3-11.9 12.3-11.9 3.9 0 7.5 1.3 9.9 3.6V92c-2.6 2.5-5.9 3.7-9.9 3.7-6.9 0-12.3-5.1-12.3-11.9m22.4 23.5h14.2V42.1l-14.4 3.1v17.7c-3.5-2-7.6-3.1-12-3.1-13.7 0-24.4 10.6-24.4 24 0 13.5 10.6 24.1 24 24.1 4.6 0 9-1.4 12.6-4.1v3.5zm-65.1-36c4.5 0 8.3 2.9 9.8 7.5h-19.6c1.5-4.7 5-7.5 9.8-7.5m-24.2 12.6c0 13.7 11.2 24.3 25.5 24.3 7.9 0 13.7-2.1 19.6-7.1l-9.5-8.4c-2.2 2.3-5.5 3.5-9.4 3.5-5.3 0-9.7-2.9-11.5-7.5h33.4v-3.5c0-14.9-10-25.6-23.7-25.6s-24.4 10.6-24.4 24.3m-24.7-25.6c5.1 0 7.9 3.2 7.9 7s-2.8 7-7.9 7h-15.1v-14h15.1zm-30.4 49h15.3V84.7h11.6l11.7 22.6h17l-13.7-24.8c7.4-3.2 11.7-9.8 11.7-17.5 0-11.2-8.8-19.8-21.9-19.8h-31.8v62.1z"/></g></g></svg>

<?xml version="1.0" encoding="utf-8"?>
<!-- Generator: Adobe Illustrator 25.2.1, SVG Export Plug-In . SVG Version: 6.00 Build 0)  -->
<svg version="1.1" id="Layer_1" xmlns="http://www.w3.org/2000/svg" xmlns:xlink="http://www.w3.org/1999/xlink" x="0px" y="0px"
	 viewBox="0 0 997.2 151.8" style="enable-background:new 0 0 997.2 151.8;" xml:space="preserve">
<style type="text/css">
	.st0{fill:#101820;}
	.st1{fill:#F32735;}
	.st2{fill:#2D2A26;}
</style>
<g id="IBM_RedHat_lockup">
	<path id="IBM_1_" class="st0" d="M670.7,128.2h59.2v8.5h-59.2V128.2z M670.7,120.5h59.2V112h-59.2V120.5z M687.6,104.4H713v-8.5
		h-25.4V104.4z M687.6,88.2H713v-8.5h-25.4V88.2z M687.6,72.1H713v-8.5h-25.4V72.1z M713,47.5h-25.4v8.5H713V47.5z M670.7,39.8h59.2
		v-8.5h-59.2V39.8z M670.7,23.6h59.2v-8.5h-59.2V23.6z M738.4,120.5h90.2c1.5-2.6,2.7-5.4,3.4-8.5h-93.6V120.5z M821.5,79.8h-66.2
		v8.5h73.3C826.7,85,824.3,82.1,821.5,79.8z M755.3,63.6v8.5h66.2c2.8-2.4,5.2-5.2,7.1-8.5H755.3z M828.6,31.3h-90.2v8.5H832
		C831.2,36.8,830.1,33.9,828.6,31.3z M800.6,15.2h-62.3v8.5h84C816.7,18.4,809,15.2,800.6,15.2z M755.3,55.9h25.4v-8.5h-25.4V55.9z
		 M804.5,55.9h27.3c0.7-2.7,1.1-5.5,1.1-8.5h-28.4V55.9z M755.3,104.4h25.4v-8.5h-25.4V104.4z M804.5,95.9v8.5h28.4
		c0-2.9-0.4-5.8-1.1-8.5H804.5z M738.4,136.6h62.3c8.5,0,16-3.2,21.8-8.5h-84V136.6z M907.5,136.6l3-8.5h-5.9L907.5,136.6z
		 M901.8,120.5h11.3l3-8.5h-17.2L901.8,120.5z M896.2,104.4h22.6l3-8.5h-28.5L896.2,104.4z M890.5,88.2h33.9l3-8.5h-39.9L890.5,88.2
		z M856.7,55.9h45.7l-2.9-8.5h-42.7V55.9z M918.1,39.8h57v-8.5h-54L918.1,39.8z M926.7,15.2l-2.9,8.5h51.4v-8.5H926.7z M839.8,136.6
		h42.3v-8.5h-42.3V136.6z M839.8,120.5h42.3V112h-42.3V120.5z M856.7,104.4h25.4v-8.5h-25.4V104.4z M856.7,88.2h25.4v-8.5h-25.4
		V88.2z M958.2,47.5h-42.7l-2.9,8.5h45.7V47.5z M932.8,72.1h25.4v-8.5h-48.4l-2.4,6.8l-2.4-6.8h-48.4v8.5h25.4v-7.8l2.7,7.8h45.3
		l2.7-7.8V72.1z M958.2,79.8h-25.4v8.5h25.4V79.8z M932.8,104.4h25.4v-8.5h-25.4V104.4z M932.8,120.5h42.3V112h-42.3V120.5z
		 M932.8,136.6h42.3v-8.5h-42.3V136.6z M896.8,39.8l-2.9-8.5h-54l0,8.5H896.8z M891.2,23.6l-2.9-8.5h-48.4l0,8.5H891.2z
		 M984.2,130.3c0-3.8,2.9-6.7,6.5-6.7c3.6,0,6.5,2.9,6.5,6.7c0,3.8-2.9,6.7-6.5,6.7C987.1,137,984.2,134.1,984.2,130.3z
		 M995.6,130.8v-0.8c0-2.7-2.1-4.8-4.9-4.8c-2.8,0-4.9,2.1-4.9,4.8v0.8c0,2.7,2.1,4.8,4.9,4.8C993.5,135.6,995.6,133.5,995.6,130.8z
		 M989.7,133.8h-1.6V127h3.1c1.5,0,2.3,0.9,2.3,2.1c0,1.1-0.5,1.7-1.2,2l1.5,2.6h-1.8l-1.3-2.3h-0.9V133.8z M991,130.2
		c0.5,0,0.8-0.2,0.8-0.7V129c0-0.5-0.3-0.7-0.8-0.7h-1.2v1.9H991z"/>
	<path id="Divider_1_" class="st0" d="M592,151.8h2.8V0H592V151.8z"/>
	<g id="RedHat">
		<path class="st1" d="M107.1,85.2c10.5,0,25.8-2.2,25.8-14.7c0-1,0-1.9-0.3-2.9l-6.3-27.3c-1.5-6-2.7-8.7-13.3-14
			c-8.2-4.2-26-11.1-31.3-11.1c-4.9,0-6.4,6.4-12.2,6.4c-5.6,0-9.8-4.7-15.1-4.7c-5.1,0-8.4,3.5-10.9,10.5c0,0-7.1,20-8,22.9
			c-0.2,0.5-0.2,1.2-0.2,1.6C35.5,59.7,66.1,85.2,107.1,85.2 M134.6,75.5c1.5,6.9,1.5,7.6,1.5,8.5c0,11.8-13.3,18.4-30.7,18.4
			c-39.5,0-74-23.1-74-38.4c0-2.4,0.5-4.5,1.3-6.2C18.4,58.6,0,61.2,0,77.4c0,26.5,62.9,59.3,112.7,59.3c38.2,0,47.8-17.3,47.8-30.9
			C160.6,95,151.3,82.8,134.6,75.5"/>
		<path class="st2" d="M134.6,75.5c1.5,6.9,1.5,7.6,1.5,8.5c0,11.8-13.3,18.4-30.7,18.4c-39.5,0-74-23.1-74-38.4
			c0-2.4,0.5-4.5,1.3-6.2l3.1-7.6c-0.2,0.5-0.2,1.2-0.2,1.6c0,7.8,30.6,33.3,71.6,33.3c10.5,0,25.8-2.2,25.8-14.7c0-1,0-1.9-0.3-2.9
			L134.6,75.5z"/>
		<path class="st2" d="M488.6,93c0,10,6,14.9,17,14.9c2.7,0,7.3-0.6,10-1.4V94.9c-2.4,0.7-4.2,1-6.5,1c-4.5,0-6.2-1.4-6.2-5.7V72.4
			h13.1v-12h-13.1V45.2l-14.4,3.1v12.1h-9.5v12h9.5V93z M443.9,93.3c0-3.1,3.1-4.6,7.8-4.6c3.1,0,5.9,0.4,8.5,1.1v6
			c-2.7,1.5-5.8,2.2-9,2.2C446.7,98,443.9,96.2,443.9,93.3 M448.3,108.1c5.1,0,9.1-1.1,13-3.6v2.8h14.2V77.3
			c0-11.4-7.7-17.7-20.6-17.7c-7.2,0-14.3,1.7-21.9,5.1l5.1,10.6c5.5-2.3,10.1-3.7,14.2-3.7c5.9,0,9,2.3,9,7v2.3
			c-3.4-0.9-6.9-1.3-10.6-1.3c-12.1,0-19.3,5.1-19.3,14.1C431.3,101.8,437.8,108.1,448.3,108.1 M370.3,107.3h15.3V83h25.5v24.3h15.3
			V45.2h-15.3v23.9h-25.5V45.2h-15.3V107.3z M312.2,83.8c0-6.7,5.3-11.9,12.3-11.9c3.9,0,7.5,1.3,9.9,3.6V92
			c-2.6,2.5-5.9,3.7-9.9,3.7C317.6,95.7,312.2,90.6,312.2,83.8 M334.6,107.3h14.2V42.1l-14.4,3.1v17.7c-3.5-2-7.6-3.1-12-3.1
			c-13.7,0-24.4,10.6-24.4,24c0,13.5,10.6,24.1,24,24.1c4.6,0,9-1.4,12.6-4.1V107.3z M269.5,71.3c4.5,0,8.3,2.9,9.8,7.5h-19.6
			C261.2,74.1,264.7,71.3,269.5,71.3 M245.3,83.9c0,13.7,11.2,24.3,25.5,24.3c7.9,0,13.7-2.1,19.6-7.1l-9.5-8.4
			c-2.2,2.3-5.5,3.5-9.4,3.5c-5.3,0-9.7-2.9-11.5-7.5h33.4v-3.5c0-14.9-10-25.6-23.7-25.6C256,59.6,245.3,70.2,245.3,83.9
			 M220.6,58.3c5.1,0,7.9,3.2,7.9,7s-2.8,7-7.9,7h-15.1v-14H220.6z M190.2,107.3h15.3V84.7h11.6l11.7,22.6h17l-13.7-24.8
			c7.4-3.2,11.7-9.8,11.7-17.5c0-11.2-8.8-19.8-21.9-19.8h-31.8V107.3z"/>
	</g>
</g>
</svg>
